icons/inbox-check.svg

<svg xmlns="http://www.w3.org/2000/svg" width="24" height="24" viewBox="0 0 24 24">
  <path d="M6,16 L6.11662113,16.0067277 C6.61395981,16.0644928 7,16.4871642 7,17 C7,18.5976809 8.24891996,19.9036609 9.82372721,19.9949073 L10,20 L14,20 L14.1762728,19.9949073 C15.6927538,19.9070404 16.9070404,18.6927538 16.9949073,17.1762728 L17,17 L17.0067277,16.8833789 C17.0600494,16.424297 17.424297,16.0600494 17.8833789,16.0067277 L18,16 L22,16 L22,20 C22,21.1045695 21.1045695,22 20,22 L4,22 C2.8954305,22 2,21.1045695 2,20 L2,16 L6,16 Z M20,2 C21.1045695,2 22,2.8954305 22,4 L22,14 L18,14 L17.8237272,14.0050927 C16.24892,14.0963391 15,15.4023191 15,17 C15,17.5128358 14.6139598,17.9355072 14.1166211,17.9932723 L14,18 L10,18 L9.88337887,17.9932723 C9.42429701,17.9399506 9.06004937,17.575703 9.00672773,17.1166211 L9,17 L8.99490731,16.8237272 C8.90704038,15.3072462 7.69275384,14.0929596 6.17627279,14.0050927 L6,14 L2,14 L2,4 C2,2.8954305 2.8954305,2 4,2 L20,2 Z M15.6616216,6.25016214 C15.2474976,5.8847586 14.6155657,5.92425435 14.2501621,6.33837836 L14.2501621,6.33837836 L11.47,9.488 L10.7498379,8.6717117 L10.6610031,8.5828086 C10.2885028,8.25390727 9.72064668,8.2461999 9.33837836,8.58349548 C8.92425435,8.94889902 8.8847586,9.58083096 9.25016214,9.99495497 L9.25016214,9.99495497 L10.7207504,11.6616216 L10.8105077,11.7513955 C11.2177832,12.1104909 11.8507691,12.0805663 12.2204261,11.6616216 L12.2204261,11.6616216 L15.7498379,7.66162164 L15.826988,7.5624086 C16.1069484,7.15185442 16.04389,6.58745772 15.6616216,6.25016214 Z"/>
</svg>

<svg xmlns="http://www.w3.org/2000/svg" viewBox="0 0 24 24">
  <path d="M6 16h.12A1 1 0 0 1 7 17a3 3 0 0 0 2.82 3h4.36a3 3 0 0 0 2.81-2.82L17 17v-.12a1 1 0 0 1 .88-.87L18 16h4v4a2 2 0 0 1-2 2H4a2 2 0 0 1-2-2v-4h4zM20 2a2 2 0 0 1 2 2v10h-4.18A3 3 0 0 0 15 17a1 1 0 0 1-.88 1H9.88a1 1 0 0 1-.87-.88L9 17v-.18a3 3 0 0 0-2.82-2.81L6 14H2V4c0-1.1.9-2 2-2h16zm-4.34 4.25a1 1 0 0 0-1.41.09l-2.78 3.15-.72-.82-.09-.09A1 1 0 0 0 9.25 10l1.47 1.67.1.1a1 1 0 0 0 1.4-.1l3.53-4 .08-.1a1 1 0 0 0-.17-1.31z"/>
</svg>
